X:1
T:French Suite IV Gavotte
T:J. S. Bach
T:BWV 815
%%score { ( 1 3 ) | 2 }
L:1/8
Q:1/4=184
M:4/4
K:Eb
V:1 treble nm="Harp"
V:3 treble 
V:2 bass 
V:1
"^Presto" eBcA | A/4G/4A/4G/4A/4G/4A/4G/4 A/4G/4A/4G/4A BFGE | D2 CB, AEFD | GDEB cGAf | %4
 edcB eBcA | G3 E FB=Ae | d2- de fcdB | =AgfB dcBA | B4 eBcA | %9
 A/4G/4A/4G/4A/4G/4A/4G/4 A/4G/4A/4G/4A BFGE | D2 CB, AEFD | GDEB cGAf | edcB eBcA | G3 E FB=Ae | %14
 d2- de fcdB | =AgfB dcBA | B4 fcdB | a3 B dfaf | g4- gdec | fcd=B eBc=A | c=B=AG gdec | %21
 b3 c _dBcb | a3 g fcd=B | gdec Gcd=B | c4- cf=eb | a=efd B_eda | gdec Aedf | Gdce FcB_d- | %28
 d4 cGAF | DcBa geBd | e4 fcdB | a3 B dfaf | g4- gdec | fcd=B eBc=A | c=B=AG gdec | b3 c _dBcb | %36
 a3 g fcd=B | gdec Gcd=B | c4- cf=eb | a=efd B_eda | gdec Aedf | Gdce FcB_d- | d4 cGAF | %43
 DcBa geBd | !fermata!e4 z4 |] %45
V:2
 z4 | EB,CA, G,3 A, | B,F,G,E, D,2 B,,2 | E,3 G, A,2 F,2 | B,A,G,F, E,2 z2 | %5
 EB,CA, B,/4=A,/4B,/4A,/4B,/4A,/4B,/4A,/4 B,/4A,/4B,/4A,/4F, | B,F,G,E, D,2 B,,2 | %7
 E,2 D,E, F,2 F,,2 | B,,A,,G,,F,, E,,2 z2 | EB,CA, G,3 A, | B,F,G,E, D,2 B,,2 | E,3 G, A,2 F,2 | %12
 B,A,G,F, E,2 z2 | EB,CA, B,/4=A,/4B,/4A,/4B,/4A,/4B,/4A,/4 B,/4A,/4B,/4A,/4F, | %14
 B,F,G,E, D,2 B,,2 | E,2 D,E, F,2 F,,2 | B,,4 z4 | F,C,D,B,, B,3 D, | E,=B,,C,G,, A,,4- | %19
 A,,2 A,2 G,2 ^F,2 | G,2 F,2 E,2 C,2 | _D,A,G,B, =E,2 C,2 | F,C,D,=B,, A,E,F,D, | %23
 E,=B,,C,E, G,2 G,,2 | CG,A,F, =E,2 C,2 | F,G,A,F, D,2 B,,2 | E,F,G,E, C,G,F,A, | %27
 B,,F,E,G, A,,E,_D,F, | B,,F,,G,,E,, A,,2 F,,2 | B,,3 D, E,G,B,B,, | E,,4 z4 | F,C,D,B,, B,3 D, | %32
 E,=B,,C,G,, A,,4- | A,,2 A,2 G,2 ^F,2 | G,2 F,2 E,2 C,2 | _D,A,G,B, =E,2 C,2 | %36
 F,C,D,=B,, A,E,F,D, | E,=B,,C,E, G,2 G,,2 | CG,A,F, =E,2 C,2 | F,G,A,F, D,2 B,,2 | %40
 E,F,G,E, C,G,F,A, | B,,F,E,G, A,,E,_D,F, | B,,F,,G,,E,, A,,2 F,,2 | B,,3 D, E,G,B,B,, | %44
 !fermata!E,,4 z4 |] %45
V:3
 x4 | x8 | x8 | x8 | x8 | x8 | x8 | x8 | x8 | x8 | x8 | x8 | x8 | x8 | x8 | x8 | x8 | x8 | x8 | %19
 x8 | x8 | x8 | x8 | x8 | x8 | x8 | x8 | x8 | E4 z4 | x8 | x8 | x8 | x8 | x8 | x8 | x8 | x8 | x8 | %38
 x8 | x8 | x8 | x8 | E4 z4 | x8 | x8 |] %45

